X:530
T: ICH HAB EIN KLEINES HUETTCHEN
N: E0516
O: Europa, Mitteleuropa, Deutschland
R: Liebes - Lied
M: 3/4
L: 1/8
K: F
CFG | A3BGA | F3
AAB | c3dBc | A2z
FFF | d3dfd | c2A
ccc | B2Gccc | A2z
FFF | d3dfd | c2A
ccc | B2Gccc | A2z

@@@ Tune index: 4180
